X: 14
T:Squire Wood's Lamentation on the Refusal of his Halfpence
M:C|
L:1/8
C:T. O'Carolan
R:Reel
K:G
GA|B4 B3 g| d2 Bd B2 AG| B4 B3g| e2 de B>g|
e2 dB d2 dA| B2 GF A2 GE| G3A BG dB| "tr"A4 G3||
d| ef ga gG g2| ga b/a/g e3 d| B2 d2 efgf| "tr"e4 d3 d|
efga gG g2| ga b/a/g e3 d| BA B2 dB d2| ed e2 a4|
ge g2 ed e2| dB d2 BG B2| =c3 e d>gdB| A4 G2||

